X:88
T:Captain Byng
R:Reel
C:Nathaniel Gow
B:The Athole Collection
M:C|
L:1/8
K:G
g|fdgd BGGB|cAag fdef|gfgd BGGB|cedc BGG:|
c|BGdG BGGB|cAeA cAAc|BGdG BGGB|cedc BGGc|
BGdG BGGB|cAeA cAAc|BGdB cedc|BdAc BGG||

